flaticon/technology/game-console-8.svg

<svg xmlns="http://www.w3.org/2000/svg" width="32" height="32" viewBox="0 0 24 24">
    <path d="M 22.640625 0 L 1.359375 0 C 0.722656 0 0.203125 0.519531 0.203125 1.15625 L 0.203125 22.84375 C 0.203125 23.480469 0.722656 24 1.359375 24 L 22.640625 24 C 23.277344 24 23.796875 23.480469 23.796875 22.84375 L 23.796875 1.15625 C 23.796875 0.519531 23.277344 0 22.640625 0 Z M 22.984375 22.84375 C 22.984375 23.03125 22.828125 23.1875 22.640625 23.1875 L 1.359375 23.1875 C 1.171875 23.1875 1.015625 23.03125 1.015625 22.84375 L 1.015625 12.203125 L 22.984375 12.203125 Z M 1.015625 1.15625 C 1.015625 0.96875 1.171875 0.8125 1.359375 0.8125 L 22.640625 0.8125 C 22.828125 0.8125 22.984375 0.96875 22.984375 1.15625 L 22.984375 11.390625 L 1.015625 11.390625 Z M 1.015625 1.15625"/>
    <path d="M17.460938 1.625L6.539062 1.625C5.960938 1.625 5.492188 2.09375 5.492188 2.671875L5.492188 9.527344C5.492188 10.105469 5.960938 10.578125 6.539062 10.578125L17.460938 10.578125C18.039062 10.578125 18.507812 10.105469 18.507812 9.527344L18.507812 2.671875C18.507812 2.09375 18.039062 1.625 17.460938 1.625zM17.695312 9.527344C17.695312 9.65625 17.589844 9.761719 17.460938 9.761719L6.539062 9.761719C6.410156 9.761719 6.304688 9.65625 6.304688 9.527344L6.304688 2.671875C6.304688 2.542969 6.410156 2.4375 6.539062 2.4375L17.460938 2.4375C17.589844 2.4375 17.695312 2.542969 17.695312 2.671875zM6.539062 22.371094L17.460938 22.371094C18.039062 22.371094 18.507812 21.902344 18.507812 21.324219L18.507812 14.066406C18.507812 13.488281 18.039062 13.015625 17.460938 13.015625L6.539062 13.015625C5.960938 13.015625 5.492188 13.488281 5.492188 14.066406L5.492188 21.324219C5.492188 21.902344 5.960938 22.371094 6.539062 22.371094zM6.304688 14.066406C6.304688 13.9375 6.410156 13.832031 6.539062 13.832031L17.460938 13.832031C17.589844 13.832031 17.695312 13.9375 17.695312 14.066406L17.695312 21.324219C17.695312 21.453125 17.589844 21.558594 17.460938 21.558594L6.539062 21.558594C6.410156 21.558594 6.304688 21.453125 6.304688 21.324219zM3.863281 18.710938L3.050781 18.710938 3.050781 19.933594 1.832031 19.933594 1.832031 20.746094 3.050781 20.746094 3.050781 21.964844 3.863281 21.964844 3.863281 20.746094 5.085938 20.746094 5.085938 19.933594 3.863281 19.933594zM21.355469 15.660156C21.355469 15.996094 21.082031 16.269531 20.746094 16.269531 20.410156 16.269531 20.136719 15.996094 20.136719 15.660156 20.136719 15.324219 20.410156 15.050781 20.746094 15.050781 21.082031 15.050781 21.355469 15.324219 21.355469 15.660156zM21.355469 17.695312C21.355469 18.03125 21.082031 18.304688 20.746094 18.304688 20.410156 18.304688 20.136719 18.03125 20.136719 17.695312 20.136719 17.359375 20.410156 17.085938 20.746094 17.085938 21.082031 17.085938 21.355469 17.359375 21.355469 17.695312zM22.578125 16.679688C22.578125 17.015625 22.304688 17.289062 21.964844 17.289062 21.628906 17.289062 21.355469 17.015625 21.355469 16.679688 21.355469 16.339844 21.628906 16.066406 21.964844 16.066406 22.304688 16.066406 22.578125 16.339844 22.578125 16.679688zM20.136719 16.679688C20.136719 17.015625 19.863281 17.289062 19.527344 17.289062 19.1875 17.289062 18.914062 17.015625 18.914062 16.679688 18.914062 16.339844 19.1875 16.066406 19.527344 16.066406 19.863281 16.066406 20.136719 16.339844 20.136719 16.679688zM20.136719 21.761719C20.136719 22.101562 19.863281 22.371094 19.527344 22.371094 19.1875 22.371094 18.914062 22.101562 18.914062 21.761719 18.914062 21.425781 19.1875 21.152344 19.527344 21.152344 19.863281 21.152344 20.136719 21.425781 20.136719 21.761719zM1.949219 5.8125C1.875 5.890625 1.832031 5.996094 1.832031 6.101562 1.832031 6.207031 1.875 6.3125 1.949219 6.390625 2.027344 6.464844 2.132812 6.507812 2.238281 6.507812 2.34375 6.507812 2.449219 6.464844 2.527344 6.390625 2.597656 6.3125 2.644531 6.207031 2.644531 6.101562 2.644531 5.996094 2.597656 5.890625 2.527344 5.8125 2.375 5.664062 2.097656 5.664062 1.949219 5.8125zM3.167969 4.59375C3.09375 4.667969 3.050781 4.769531 3.050781 4.882812 3.050781 4.988281 3.09375 5.09375 3.167969 5.171875 3.246094 5.242188 3.351562 5.289062 3.457031 5.289062 3.5625 5.289062 3.667969 5.242188 3.746094 5.171875 3.820312 5.09375 3.863281 4.988281 3.863281 4.882812 3.863281 4.769531 3.820312 4.667969 3.746094 4.59375 3.597656 4.441406 3.324219 4.441406 3.167969 4.59375zM3.167969 7.035156C3.09375 7.109375 3.050781 7.214844 3.050781 7.320312 3.050781 7.429688 3.09375 7.535156 3.167969 7.609375 3.246094 7.6875 3.351562 7.730469 3.457031 7.730469 3.5625 7.730469 3.667969 7.683594 3.746094 7.609375 3.820312 7.535156 3.863281 7.429688 3.863281 7.320312 3.863281 7.214844 3.820312 7.109375 3.746094 7.035156 3.597656 6.882812 3.324219 6.882812 3.167969 7.035156zM4.390625 5.8125C4.316406 5.890625 4.269531 5.996094 4.269531 6.101562 4.269531 6.207031 4.316406 6.3125 4.390625 6.390625 4.464844 6.464844 4.570312 6.507812 4.679688 6.507812 4.785156 6.507812 4.890625 6.464844 4.964844 6.390625 5.039062 6.3125 5.085938 6.207031 5.085938 6.101562 5.085938 5.996094 5.039062 5.890625 4.964844 5.8125 4.816406 5.664062 4.539062 5.664062 4.390625 5.8125zM19.035156 5.8125C18.960938 5.890625 18.914062 5.996094 18.914062 6.101562 18.914062 6.207031 18.960938 6.3125 19.035156 6.390625 19.109375 6.464844 19.214844 6.507812 19.320312 6.507812 19.429688 6.507812 19.535156 6.464844 19.609375 6.390625 19.683594 6.3125 19.730469 6.207031 19.730469 6.101562 19.730469 5.996094 19.683594 5.890625 19.609375 5.8125 19.460938 5.664062 19.183594 5.664062 19.035156 5.8125zM20.253906 4.59375C20.179688 4.664062 20.136719 4.769531 20.136719 4.882812 20.136719 4.988281 20.179688 5.09375 20.253906 5.171875 20.332031 5.242188 20.4375 5.289062 20.542969 5.289062 20.648438 5.289062 20.753906 5.242188 20.832031 5.171875 20.90625 5.09375 20.949219 4.988281 20.949219 4.882812 20.949219 4.769531 20.90625 4.667969 20.832031 4.59375 20.675781 4.441406 20.402344 4.441406 20.253906 4.59375zM20.253906 7.035156C20.179688 7.109375 20.136719 7.214844 20.136719 7.320312 20.136719 7.429688 20.179688 7.535156 20.253906 7.609375 20.332031 7.683594 20.4375 7.730469 20.542969 7.730469 20.648438 7.730469 20.753906 7.683594 20.832031 7.609375 20.90625 7.535156 20.949219 7.429688 20.949219 7.320312 20.949219 7.214844 20.90625 7.109375 20.832031 7.035156 20.675781 6.882812 20.402344 6.882812 20.253906 7.035156zM21.472656 5.8125C21.402344 5.890625 21.355469 5.996094 21.355469 6.101562 21.355469 6.207031 21.402344 6.3125 21.472656 6.390625 21.550781 6.464844 21.65625 6.507812 21.761719 6.507812 21.867188 6.507812 21.972656 6.464844 22.050781 6.390625 22.125 6.3125 22.167969 6.207031 22.167969 6.101562 22.167969 5.996094 22.125 5.890625 22.050781 5.8125 21.90625 5.664062 21.628906 5.664062 21.472656 5.8125zM3.253906 17.085938C4.261719 17.085938 5.085938 16.261719 5.085938 15.253906 5.085938 14.246094 4.261719 13.421875 3.253906 13.421875 2.246094 13.421875 1.421875 14.246094 1.421875 15.253906 1.421875 16.261719 2.246094 17.085938 3.253906 17.085938zM3.253906 14.238281C3.816406 14.238281 4.269531 14.691406 4.269531 15.253906 4.269531 15.816406 3.816406 16.269531 3.253906 16.269531 2.695312 16.269531 2.238281 15.816406 2.238281 15.253906 2.238281 14.691406 2.695312 14.238281 3.253906 14.238281zM3.253906 14.238281"/>
    <path d="M7.527344 5.695312C7.628906 5.695312 7.734375 5.65625 7.8125 5.574219L9.441406 3.949219C9.597656 3.789062 9.597656 3.53125 9.441406 3.375 9.28125 3.214844 9.023438 3.214844 8.863281 3.375L7.238281 5C7.078125 5.160156 7.078125 5.417969 7.238281 5.574219 7.316406 5.65625 7.421875 5.695312 7.527344 5.695312zM8.050781 6.222656L7.238281 7.035156C7.078125 7.195312 7.078125 7.449219 7.238281 7.609375 7.316406 7.6875 7.421875 7.730469 7.527344 7.730469 7.628906 7.730469 7.734375 7.6875 7.8125 7.609375L8.625 6.796875C8.785156 6.636719 8.785156 6.378906 8.625 6.222656 8.46875 6.0625 8.210938 6.0625 8.050781 6.222656zM8.863281 5.40625C8.789062 5.484375 8.746094 5.589844 8.746094 5.695312 8.746094 5.800781 8.789062 5.90625 8.863281 5.984375 8.941406 6.058594 9.042969 6.101562 9.152344 6.101562 9.257812 6.101562 9.363281 6.058594 9.441406 5.984375 9.515625 5.90625 9.558594 5.800781 9.558594 5.695312 9.558594 5.589844 9.515625 5.484375 9.441406 5.40625 9.289062 5.253906 9.011719 5.253906 8.863281 5.40625zM10.898438 3.375L9.679688 4.59375C9.519531 4.753906 9.519531 5.011719 9.679688 5.167969 9.757812 5.25 9.863281 5.289062 9.964844 5.289062 10.070312 5.289062 10.175781 5.25 10.253906 5.167969L11.472656 3.949219C11.632812 3.789062 11.632812 3.53125 11.472656 3.375 11.316406 3.214844 11.058594 3.214844 10.898438 3.375zM7.527344 17.085938C7.628906 17.085938 7.734375 17.042969 7.8125 16.964844L9.441406 15.339844C9.597656 15.179688 9.597656 14.921875 9.441406 14.761719 9.28125 14.605469 9.023438 14.605469 8.863281 14.761719L7.238281 16.390625C7.078125 16.550781 7.078125 16.804688 7.238281 16.964844 7.316406 17.042969 7.421875 17.085938 7.527344 17.085938zM7.527344 19.117188C7.628906 19.117188 7.734375 19.078125 7.8125 19L8.625 18.1875C8.785156 18.027344 8.785156 17.769531 8.625 17.609375 8.46875 17.453125 8.210938 17.453125 8.050781 17.609375L7.238281 18.425781C7.078125 18.582031 7.078125 18.839844 7.238281 19 7.316406 19.078125 7.421875 19.117188 7.527344 19.117188zM8.863281 16.796875C8.789062 16.871094 8.746094 16.972656 8.746094 17.085938 8.746094 17.195312 8.789062 17.296875 8.863281 17.375 8.941406 17.445312 9.042969 17.492188 9.152344 17.492188 9.257812 17.492188 9.363281 17.445312 9.441406 17.375 9.515625 17.296875 9.558594 17.191406 9.558594 17.085938 9.558594 16.980469 9.515625 16.871094 9.441406 16.796875 9.289062 16.644531 9.015625 16.644531 8.863281 16.796875zM9.679688 16.558594C9.757812 16.636719 9.863281 16.679688 9.964844 16.679688 10.070312 16.679688 10.175781 16.636719 10.253906 16.558594L11.472656 15.339844C11.632812 15.179688 11.632812 14.921875 11.472656 14.761719 11.316406 14.605469 11.058594 14.605469 10.898438 14.761719L9.679688 15.984375C9.519531 16.144531 9.519531 16.398438 9.679688 16.558594zM9.679688 16.558594"/>
</svg>

<svg xmlns="http://www.w3.org/2000/svg" width="32" height="32" viewBox="0 0 24 24">
    <path d="M22.64 0H1.36C.722 0 .202.52.202 1.156v21.688C.203 23.48.723 24 1.36 24h21.282c.636 0 1.156-.52 1.156-1.156V1.156C23.797.52 23.277 0 22.64 0zm.344 22.844a.347.347 0 0 1-.343.343H1.359a.347.347 0 0 1-.343-.343v-10.64h21.968zM1.016 1.156c0-.187.156-.343.343-.343h21.282c.187 0 .343.156.343.343v10.235H1.016zm0 0"/>
    <path d="M17.46 1.625H6.54c-.58 0-1.048.469-1.048 1.047v6.855c0 .578.469 1.051 1.047 1.051h10.922a1.05 1.05 0 0 0 1.047-1.05V2.671c0-.578-.469-1.047-1.047-1.047zm.235 7.902a.235.235 0 0 1-.234.235H6.539a.235.235 0 0 1-.234-.235V2.672c0-.129.105-.235.234-.235h10.922c.129 0 .234.106.234.235zm0 0M6.54 22.371h10.92c.58 0 1.048-.469 1.048-1.047v-7.258a1.05 1.05 0 0 0-1.047-1.05H6.539a1.05 1.05 0 0 0-1.047 1.05v7.258c0 .578.469 1.047 1.047 1.047zm-.235-8.305c0-.129.105-.234.234-.234h10.922c.129 0 .234.105.234.234v7.258a.235.235 0 0 1-.234.235H6.539a.235.235 0 0 1-.234-.235zm0 0M3.863 18.71h-.812v1.224H1.832v.812h1.219v1.219h.812v-1.219h1.223v-.812H3.863zm0 0M21.355 15.66a.61.61 0 1 1-1.22-.001.61.61 0 0 1 1.22.001zm0 0M21.355 17.695a.61.61 0 1 1-1.22-.001.61.61 0 0 1 1.22.001zm0 0M22.578 16.68a.611.611 0 1 1-1.222-.004.611.611 0 0 1 1.222.004zm0 0M20.137 16.68a.61.61 0 0 1-1.223 0 .612.612 0 1 1 1.223 0zm0 0M20.137 21.762c0 .34-.274.61-.61.61a.609.609 0 1 1 0-1.22.61.61 0 0 1 .61.61zm0 0M1.95 5.813a.425.425 0 0 0-.118.289c0 .105.043.21.117.289a.425.425 0 0 0 .29.117c.105 0 .21-.043.288-.117a.444.444 0 0 0 .118-.29.444.444 0 0 0-.118-.288.43.43 0 0 0-.578 0zm0 0M3.168 4.594a.404.404 0 0 0-.117.289c0 .105.043.21.117.289.078.07.184.117.289.117.106 0 .211-.047.29-.117a.425.425 0 0 0 .116-.29.404.404 0 0 0-.117-.288.423.423 0 0 0-.578 0zm0 0M3.168 7.035a.409.409 0 0 0 .289.695.43.43 0 0 0 .29-.12.41.41 0 0 0 0-.575.423.423 0 0 0-.579 0zm0 0M4.39 5.813a.43.43 0 0 0-.12.289c0 .105.046.21.12.289a.41.41 0 0 0 .575 0 .43.43 0 0 0 .12-.29.43.43 0 0 0-.12-.288.426.426 0 0 0-.574 0zm0 0M19.035 5.813a.43.43 0 0 0-.12.289c0 .105.046.21.12.289a.409.409 0 0 0 .695-.29.43.43 0 0 0-.12-.288.426.426 0 0 0-.575 0zm0 0M20.254 4.594a.398.398 0 0 0-.117.289c0 .105.043.21.117.289.078.07.183.117.289.117.105 0 .21-.047.289-.117a.425.425 0 0 0 .117-.29.404.404 0 0 0-.117-.288.423.423 0 0 0-.578 0zm0 0M20.254 7.035a.409.409 0 0 0 .289.695.43.43 0 0 0 .289-.12.41.41 0 0 0 0-.575.423.423 0 0 0-.578 0zm0 0M21.473 5.813a.444.444 0 0 0-.118.289c0 .105.047.21.118.289a.425.425 0 0 0 .289.117c.105 0 .21-.043.289-.117a.425.425 0 0 0 .117-.29.425.425 0 0 0-.117-.288c-.145-.149-.422-.149-.578 0zm0 0M3.254 17.086a1.837 1.837 0 0 0 1.832-1.832 1.837 1.837 0 0 0-1.832-1.832 1.837 1.837 0 0 0-1.832 1.832c0 1.008.824 1.832 1.832 1.832zm0-2.848c.562 0 1.016.453 1.016 1.016a1.016 1.016 0 1 1-1.016-1.016zm0 0"/>
    <path d="M7.527 5.695c.102 0 .207-.039.285-.12l1.63-1.626a.408.408 0 0 0-.578-.574L7.237 5a.403.403 0 0 0 0 .574.396.396 0 0 0 .29.121zm0 0M8.05 6.223l-.812.812a.403.403 0 0 0 0 .574.412.412 0 0 0 .29.121.41.41 0 0 0 .285-.12l.812-.813a.403.403 0 0 0 0-.574.403.403 0 0 0-.574 0zm0 0M8.863 5.406a.425.425 0 0 0-.117.29c0 .105.043.21.117.288a.418.418 0 0 0 .578 0 .425.425 0 0 0 .118-.289.425.425 0 0 0-.118-.289.423.423 0 0 0-.578 0zm0 0M10.898 3.375L9.68 4.594a.403.403 0 0 0 0 .574.394.394 0 0 0 .285.121c.105 0 .21-.039.289-.121l1.219-1.219a.403.403 0 0 0 0-.574.403.403 0 0 0-.575 0zm0 0M7.527 17.086a.41.41 0 0 0 .285-.121l1.63-1.625a.415.415 0 0 0 0-.578.415.415 0 0 0-.579 0L7.238 16.39a.403.403 0 0 0 0 .574.412.412 0 0 0 .29.12zm0 0M7.527 19.117c.102 0 .207-.039.285-.117l.813-.813a.408.408 0 0 0-.574-.578l-.813.817a.403.403 0 0 0 .29.691zm0 0M8.863 16.797a.418.418 0 0 0 0 .578c.078.07.18.117.29.117.105 0 .21-.047.288-.117a.418.418 0 0 0 0-.578.423.423 0 0 0-.578 0zm0 0M9.68 16.559a.41.41 0 0 0 .285.12c.105 0 .21-.042.289-.12l1.219-1.22a.408.408 0 0 0-.575-.577L9.68 15.984a.403.403 0 0 0 0 .575zm0 0"/>
</svg>
